src/assets/icons/exitIcon.svg

<svg width="23" height="24" viewBox="0 0 23 24" fill="none" xmlns="http://www.w3.org/2000/svg">
<path d="M1 12C1 14.34 1.06106 16.0017 1.25668 17.2352C1.4501 18.4548 1.76102 19.1562 2.18952 19.6492C2.62684 20.1523 3.28127 20.5491 4.39218 20.9735C5.21877 21.2892 6.21147 21.5906 7.45436 21.9679C7.90366 22.1042 8.38566 22.2506 8.90432 22.4111C10.7506 22.9824 12.0615 23.1022 12.9939 22.9235C13.8671 22.7562 14.4688 22.3176 14.928 21.562C15.4168 20.7577 15.753 19.5733 15.956 17.9349C16.1573 16.3094 16.2174 14.3317 16.2174 12C16.2174 9.66824 16.1573 7.69057 15.956 6.06507C15.753 4.42669 15.4168 3.24233 14.928 2.43805C14.4688 1.68242 13.8671 1.24377 12.9939 1.07648C12.0614 0.897844 10.7506 1.01757 8.90431 1.58891C8.38572 1.74939 7.90378 1.89568 7.45453 2.03205C6.21156 2.40934 5.21881 2.71068 4.39218 3.02646C3.28127 3.45084 2.62684 3.8476 2.18952 4.35072C1.76102 4.8437 1.4501 5.54512 1.25668 6.76477C1.06106 7.99824 1 9.65992 1 12Z" stroke="#212135" stroke-width="2" stroke-linecap="round" stroke-linejoin="round"/>
<ellipse rx="0.956522" ry="0.960001" transform="matrix(-1 0 0 1 12.4348 12.1621)" fill="#212135"/>
<path d="M16.2609 20.64C21.0435 20.64 21.0435 19.4727 21.0435 12.1554C21.0435 4.83798 21.0435 3.35999 16.2609 3.35999" stroke="#212135" stroke-width="2" stroke-linecap="round" stroke-linejoin="round"/>
</svg>

<svg width="23" height="24" fill="none" xmlns="http://www.w3.org/2000/svg"><path d="M1 12c0 2.34.061 4.002.257 5.235.193 1.22.504 1.921.933 2.414.437.503 1.091.9 2.202 1.325.827.315 1.82.617 3.062.994.45.136.932.283 1.45.443 1.847.571 3.158.691 4.09.512.873-.167 1.475-.605 1.934-1.361.489-.804.825-1.989 1.028-3.627.201-1.626.261-3.603.261-5.935 0-2.332-.06-4.31-.261-5.935-.203-1.638-.54-2.823-1.028-3.627-.46-.756-1.06-1.194-1.934-1.362-.933-.178-2.243-.058-4.09.513-.518.16-1 .307-1.45.443-1.242.377-2.235.679-3.062.994-1.11.425-1.765.822-2.202 1.325-.429.493-.74 1.194-.933 2.414C1.06 7.998 1 9.66 1 12Z" stroke="#212135" stroke-width="2" stroke-linecap="round" stroke-linejoin="round"/><ellipse rx=".957" ry=".96" transform="matrix(-1 0 0 1 12.435 12.162)" fill="#212135"/><path d="M16.26 20.64c4.784 0 4.784-1.167 4.784-8.485 0-7.317 0-8.795-4.783-8.795" stroke="#212135" stroke-width="2" stroke-linecap="round" stroke-linejoin="round"/></svg>
